X:0770
T:Sir John Scott's Favourite.
C:Irish.
N:None of the rhythmic groups written here like (e/f/)g>e
N:are printed with double tails on the last note.
M:9/8
L:1/8
Q:3/8=96
I: :: ||
Z:Jack Campin * www.campin.me.uk * 2009
K:G
A|(G/A/B>)A A>GE  EDE     |(G/A/B>)G AGE  c2e|dBG AGE   EDE     |(G/A/B>)G A>GE G2:|
e| dBG      G>AG (e/f/g>)e| dBG      GBG TA2e|dBG G>AG (e/f/g>)e| dBG     TA>GE G2e|
   dBG      GBG  Te>fg    | dBG      GBG TA2e|dBG G>AG (e/f/g>)e| dBG      A>GE G2|]

